src/modules/75-ce/components/COHelpSidebar/images/ssh.svg

<svg fill="none" height="81" viewBox="0 0 97 81" width="97" xmlns="http://www.w3.org/2000/svg" xmlns:xlink="http://www.w3.org/1999/xlink"><linearGradient id="a"><stop offset="0" stop-color="#808080" stop-opacity=".25"/><stop offset=".54" stop-color="#808080" stop-opacity=".12"/><stop offset="1" stop-color="#808080" stop-opacity=".1"/></linearGradient><linearGradient id="b" gradientUnits="userSpaceOnUse" x1="73.9818" x2="73.9818" xlink:href="#a" y1="51.5795" y2="0"/><linearGradient id="c" gradientUnits="userSpaceOnUse" x1="7291.18" x2="7291.18" xlink:href="#a" y1="1086.83" y2="365.035"/><linearGradient id="d" gradientUnits="userSpaceOnUse" x1="7291.18" x2="7291.18" xlink:href="#a" y1="2445.9" y2="1724.11"/><linearGradient id="e" gradientUnits="userSpaceOnUse" x1="7291.18" x2="7291.18" xlink:href="#a" y1="3795.86" y2="3074.07"/><linearGradient id="f" gradientUnits="userSpaceOnUse" x1="29275.5" x2="29275.5" xlink:href="#a" y1="32436.6" y2="17294"/><linearGradient id="g" gradientUnits="userSpaceOnUse" x1="32861.80000000001" x2="32861.80000000001" xlink:href="#a" y1="5510.41" y2="5109.91"/><linearGradient id="h" gradientUnits="userSpaceOnUse" x1="10014" x2="10014" xlink:href="#a" y1="20385.5" y2="13350.8"/><clipPath id="i"><path d="m0 0h97v81h-97z"/></clipPath><g clip-path="url(#i)"><path d="m96.9997 0h-46.0358v51.5795h46.0358z" fill="url(#b)" opacity=".64"/><path d="m96.2382 34.4377h-44.5136v16.0185h44.5136z" fill="#fff"/><g fill="#64ffda"><path d="m57.1039 38.2371h-1.725v8.2083h1.725z"/><path d="m60.5081 38.2371h-1.7249v8.2083h1.7249z" opacity=".49"/><path d="m63.9154 38.2371h-1.725v8.2083h1.725z" opacity=".36"/><path d="m67.3197 38.2371h-1.725v8.2083h1.725z" opacity=".25"/><path d="m70.7249 38.2371h-1.7249v8.2083h1.7249z" opacity=".25"/><path d="m74.1302 38.2371h-1.7249v8.2083h1.7249z" opacity=".16"/><path d="m77.5365 38.2371h-1.725v8.2083h1.725z" opacity=".09"/></g><path d="m89.9367 46.4668c2.2987 0 4.1622-1.8708 4.1622-4.1784s-1.8635-4.1784-4.1622-4.1784c-2.2988 0-4.1623 1.8708-4.1623 4.1784s1.8635 4.1784 4.1623 4.1784z" fill="#0278d5"/><path d="m96.2382 17.7951h-44.5136v16.0185h44.5136z" fill="#fff"/><path d="m57.1039 21.5945h-1.725v8.2083h1.725z" fill="#64ffda"/><path d="m60.5081 21.5945h-1.7249v8.2083h1.7249z" fill="#64ffda" opacity=".49"/><path d="m63.9154 21.5945h-1.725v8.2083h1.725z" fill="#64ffda" opacity=".36"/><path d="m67.3197 21.5945h-1.725v8.2083h1.725z" fill="#64ffda" opacity=".25"/><path d="m70.7249 21.5945h-1.7249v8.2083h1.7249z" fill="#64ffda" opacity=".25"/><path d="m74.1302 21.5945h-1.7249v8.2083h1.7249z" fill="#64ffda" opacity=".16"/><path d="m77.5365 21.5945h-1.725v8.2083h1.725z" fill="#64ffda" opacity=".09"/><path d="m89.9367 29.8253c2.2987 0 4.1622-1.8707 4.1622-4.1784 0-2.3076-1.8635-4.1783-4.1622-4.1783-2.2988 0-4.1623 1.8707-4.1623 4.1783 0 2.3077 1.8635 4.1784 4.1623 4.1784z" fill="#0278d5"/><path d="m96.2382 1.15253h-44.5136v16.01857h44.5136z" fill="#fff"/><path d="m57.1039 4.95308h-1.725v8.20832h1.725z" fill="#64ffda"/><path d="m60.5081 4.95308h-1.7249v8.20832h1.7249z" fill="#64ffda" opacity=".49"/><path d="m63.9154 4.95308h-1.725v8.20832h1.725z" fill="#64ffda" opacity=".36"/><path d="m67.3197 4.95308h-1.725v8.20832h1.725z" fill="#64ffda" opacity=".25"/><path d="m70.7249 4.95308h-1.7249v8.20832h1.7249z" fill="#64ffda" opacity=".25"/><path d="m74.1302 4.95308h-1.7249v8.20832h1.7249z" fill="#64ffda" opacity=".16"/><path d="m77.5365 4.95308h-1.725v8.20832h1.725z" fill="#64ffda" opacity=".09"/><path d="m89.9363 13.5088c2.4782 0 4.4871-2.0167 4.4871-4.50443s-2.0089-4.50443-4.4871-4.50443c-2.4781 0-4.4871 2.0167-4.4871 4.50443s2.009 4.50443 4.4871 4.50443z" fill="url(#c)"/><path d="m89.9363 30.2627c2.4782 0 4.4871-2.0167 4.4871-4.5044 0-2.4878-2.0089-4.5045-4.4871-4.5045-2.4781 0-4.4871 2.0167-4.4871 4.5045 0 2.4877 2.009 4.5044 4.4871 4.5044z" fill="url(#d)"/><path d="m89.9363 46.9042c2.4782 0 4.4871-2.0168 4.4871-4.5045s-2.0089-4.5044-4.4871-4.5044c-2.4781 0-4.4871 2.0167-4.4871 4.5044s2.009 4.5045 4.4871 4.5045z" fill="url(#e)"/><path d="m89.9367 13.1827c2.2987 0 4.1622-1.8707 4.1622-4.17833 0-2.30764-1.8635-4.17835-4.1622-4.17835-2.2988 0-4.1623 1.87071-4.1623 4.17835 0 2.30763 1.8635 4.17833 4.1623 4.17833z" fill="#0278d5"/><path d="m65.3159 78.1889h-61.6118v-39.4874c0-.2333.04578-.4643.13471-.6799.08894-.2155.2193-.4114.38364-.5764.16433-.1649.35943-.2958.57414-.3851.21472-.0893.44485-.1352.67726-.1352h58.07115c.2324 0 .4626.0459.6773.1352s.4098.2202.5741.3851c.1644.165.2947.3609.3837.5764.0889.2156.1347.4466.1347.6799z" fill="url(#f)" opacity=".64"/><path d="m6.32346 37.6513h56.37424c.4694 0 .9195.1872 1.2514.5203.3319.3332.5184.7851.5184 1.2563v38.761h-59.91379v-38.761c0-.4712.18646-.9231.51835-1.2563.33189-.3331.78203-.5203 1.2514-.5203z" fill="#fff"/><path d="m62.5376 40.0092h-56.05615v36.9091h56.05615z" fill="#f5f5f5"/><path d="m62.5159 41.8015h-55.81863v33.2065h55.81863z" fill="#e0e0e0" opacity=".8"/><path d="m62.5159 40.0373h-55.81863v1.7642h55.81863z" fill="#f5f5f5"/><path d="m7.89341 41.3191c.23507 0 .42563-.1913.42563-.4272 0-.236-.19056-.4273-.42563-.4273s-.42564.1913-.42564.4273c0 .2359.19057.4272.42564.4272z" fill="#ff5252"/><path d="m9.06528 41.3191c.23508 0 .42564-.1913.42564-.4272 0-.236-.19056-.4273-.42564-.4273-.23507 0-.42563.1913-.42563.4273 0 .2359.19056.4272.42563.4272z" fill="#ff0"/><path d="m10.2381 41.3191c.2351 0 .4257-.1913.4257-.4272 0-.236-.1906-.4273-.4257-.4273-.235 0-.4256.1913-.4256.4273 0 .2359.1906.4272.4256.4272z" fill="#69f0ae"/><path d="m67.0398 80.8414c-3.4297.2609-62.32864.1563-64.38737 0-2.6983049-1.3054-2.65238023-6.3698-2.65238023-6.3698l27.01105023-.181.0907 1.5415h11.5638l.4481-1.3605h29.9378s.5948 4.6472-2.0117 6.3698z" fill="url(#g)" opacity=".64"/><path d="m68.6121 74.8798h-29.3532c.1155.1305.1906.292.2162.4647.0256.1726.0006.3491-.0719.5077-.0726.1587-.1895.2927-.3367.3858-.1471.0931-.318.1412-.4919.1384h-11.201c-.1738.0028-.3448-.0453-.4919-.1384-.1472-.0931-.2641-.2271-.3367-.3858-.0725-.1586-.0975-.3351-.0719-.5077.0256-.1727.1007-.3342.2162-.4647h-26.283003s-.044803 4.3987 2.619893 5.5321c2.03297.1361 60.21171.2249 63.59881 0 2.5751-1.4966 1.9871-5.5321 1.9871-5.5321z" fill="#f5f5f5"/><path d="m6.50437 76.1942c.19981 0 .36179-.1626.36179-.3632 0-.2005-.16198-.3632-.36179-.3632s-.36179.1627-.36179.3632c0 .2006.16198.3632.36179.3632z" fill="#e0e0e0"/><path d="m7.58835 76.1942c.19981 0 .36179-.1626.36179-.3632 0-.2005-.16198-.3632-.36179-.3632s-.36179.1627-.36179.3632c0 .2006.16198.3632.36179.3632z" fill="#e0e0e0"/><path d="m8.67331 76.1942c.19982 0 .36179-.1626.36179-.3632 0-.2005-.16197-.3632-.36179-.3632-.19981 0-.36179.1627-.36179.3632 0 .2006.16198.3632.36179.3632z" fill="#e0e0e0"/><path d="m32.7681 43.107-10.8716 6.7161s0 13.8529 10.8716 21.4079c10.8716-7.5561 10.8716-21.4079 10.8716-21.4079z" fill="url(#h)" opacity=".49"/><path d="m32.7681 43.8997-10.2544 6.3384s0 13.0725 10.26 20.2024c10.2601-7.1299 10.2601-20.2024 10.2601-20.2024z" fill="#0278d5"/><path d="m32.9425 43.8997-.1759.1124v26.3115l.1759.1237c10.26-7.13 10.26-20.2025 10.26-20.2025z" fill="#000" opacity=".05"/><path d="m32.7681 45.4312-9.0728 5.6063s0 11.5636 9.0728 17.8716c9.0727-6.308 9.0727-17.8716 9.0727-17.8716z" fill="#0278d5"/><path d="m32.7686 45.475v23.4734c9.0727-6.308 9.0727-17.8715 9.0727-17.8715z" fill="#000" opacity=".08"/><path d="m26.7705 34.45v-23.2755h19.1536" stroke="#3ad29f" stroke-dasharray="4 4" stroke-miterlimit="10"/><path d="m20.834 27.3662v-23.27556h19.1536" stroke="#3ad29f" stroke-dasharray="4 4" stroke-miterlimit="10"/><path d="m80.199 53.6777v18.2156h-10.0808" stroke="#3ad29f" stroke-dasharray="4 4" stroke-miterlimit="10"/><path d="m86.2468 57.7256v18.2156h-10.0808" stroke="#3ad29f" stroke-dasharray="4 4" stroke-miterlimit="10"/></g></svg>

<svg width="97" height="81" viewBox="0 0 97 81" fill="none" xmlns="http://www.w3.org/2000/svg">
<g clip-path="url(#clip0)">
<g opacity="0.8">
<path opacity="0.8" d="M96.9997 0H50.9639V51.5795H96.9997V0Z" fill="url(#paint0_linear)"/>
</g>
<path d="M96.2382 34.4377H51.7246V50.4562H96.2382V34.4377Z" fill="white"/>
<path d="M57.1039 38.2371H55.3789V46.4454H57.1039V38.2371Z" fill="#64FFDA"/>
<g opacity="0.7">
<path opacity="0.7" d="M60.5081 38.2371H58.7832V46.4454H60.5081V38.2371Z" fill="#64FFDA"/>
</g>
<g opacity="0.6">
<path opacity="0.6" d="M63.9154 38.2371H62.1904V46.4454H63.9154V38.2371Z" fill="#64FFDA"/>
</g>
<g opacity="0.5">
<path opacity="0.5" d="M67.3197 38.2371H65.5947V46.4454H67.3197V38.2371Z" fill="#64FFDA"/>
</g>
<g opacity="0.5">
<path opacity="0.5" d="M70.7249 38.2371H69V46.4454H70.7249V38.2371Z" fill="#64FFDA"/>
</g>
<g opacity="0.4">
<path opacity="0.4" d="M74.1302 38.2371H72.4053V46.4454H74.1302V38.2371Z" fill="#64FFDA"/>
</g>
<g opacity="0.3">
<path opacity="0.3" d="M77.5365 38.2371H75.8115V46.4454H77.5365V38.2371Z" fill="#64FFDA"/>
</g>
<path d="M89.9367 46.4668C92.2354 46.4668 94.0989 44.596 94.0989 42.2884C94.0989 39.9808 92.2354 38.11 89.9367 38.11C87.6379 38.11 85.7744 39.9808 85.7744 42.2884C85.7744 44.596 87.6379 46.4668 89.9367 46.4668Z" fill="#0278D5"/>
<path d="M96.2382 17.7951H51.7246V33.8136H96.2382V17.7951Z" fill="white"/>
<path d="M57.1039 21.5945H55.3789V29.8028H57.1039V21.5945Z" fill="#64FFDA"/>
<g opacity="0.7">
<path opacity="0.7" d="M60.5081 21.5945H58.7832V29.8028H60.5081V21.5945Z" fill="#64FFDA"/>
</g>
<g opacity="0.6">
<path opacity="0.6" d="M63.9154 21.5945H62.1904V29.8028H63.9154V21.5945Z" fill="#64FFDA"/>
</g>
<g opacity="0.5">
<path opacity="0.5" d="M67.3197 21.5945H65.5947V29.8028H67.3197V21.5945Z" fill="#64FFDA"/>
</g>
<g opacity="0.5">
<path opacity="0.5" d="M70.7249 21.5945H69V29.8028H70.7249V21.5945Z" fill="#64FFDA"/>
</g>
<g opacity="0.4">
<path opacity="0.4" d="M74.1302 21.5945H72.4053V29.8028H74.1302V21.5945Z" fill="#64FFDA"/>
</g>
<g opacity="0.3">
<path opacity="0.3" d="M77.5365 21.5945H75.8115V29.8028H77.5365V21.5945Z" fill="#64FFDA"/>
</g>
<path d="M89.9367 29.8253C92.2354 29.8253 94.0989 27.9546 94.0989 25.6469C94.0989 23.3393 92.2354 21.4686 89.9367 21.4686C87.6379 21.4686 85.7744 23.3393 85.7744 25.6469C85.7744 27.9546 87.6379 29.8253 89.9367 29.8253Z" fill="#0278D5"/>
<path d="M96.2382 1.15253H51.7246V17.1711H96.2382V1.15253Z" fill="white"/>
<path d="M57.1039 4.95308H55.3789V13.1614H57.1039V4.95308Z" fill="#64FFDA"/>
<g opacity="0.7">
<path opacity="0.7" d="M60.5081 4.95308H58.7832V13.1614H60.5081V4.95308Z" fill="#64FFDA"/>
</g>
<g opacity="0.6">
<path opacity="0.6" d="M63.9154 4.95308H62.1904V13.1614H63.9154V4.95308Z" fill="#64FFDA"/>
</g>
<g opacity="0.5">
<path opacity="0.5" d="M67.3197 4.95308H65.5947V13.1614H67.3197V4.95308Z" fill="#64FFDA"/>
</g>
<g opacity="0.5">
<path opacity="0.5" d="M70.7249 4.95308H69V13.1614H70.7249V4.95308Z" fill="#64FFDA"/>
</g>
<g opacity="0.4">
<path opacity="0.4" d="M74.1302 4.95308H72.4053V13.1614H74.1302V4.95308Z" fill="#64FFDA"/>
</g>
<g opacity="0.3">
<path opacity="0.3" d="M77.5365 4.95308H75.8115V13.1614H77.5365V4.95308Z" fill="#64FFDA"/>
</g>
<path d="M89.9363 13.5088C92.4145 13.5088 94.4234 11.4921 94.4234 9.00437C94.4234 6.51664 92.4145 4.49994 89.9363 4.49994C87.4582 4.49994 85.4492 6.51664 85.4492 9.00437C85.4492 11.4921 87.4582 13.5088 89.9363 13.5088Z" fill="url(#paint1_linear)"/>
<path d="M89.9363 30.2627C92.4145 30.2627 94.4234 28.246 94.4234 25.7583C94.4234 23.2705 92.4145 21.2538 89.9363 21.2538C87.4582 21.2538 85.4492 23.2705 85.4492 25.7583C85.4492 28.246 87.4582 30.2627 89.9363 30.2627Z" fill="url(#paint2_linear)"/>
<path d="M89.9363 46.9042C92.4145 46.9042 94.4234 44.8874 94.4234 42.3997C94.4234 39.912 92.4145 37.8953 89.9363 37.8953C87.4582 37.8953 85.4492 39.912 85.4492 42.3997C85.4492 44.8874 87.4582 46.9042 89.9363 46.9042Z" fill="url(#paint3_linear)"/>
<path d="M89.9367 13.1827C92.2354 13.1827 94.0989 11.312 94.0989 9.00437C94.0989 6.69673 92.2354 4.82602 89.9367 4.82602C87.6379 4.82602 85.7744 6.69673 85.7744 9.00437C85.7744 11.312 87.6379 13.1827 89.9367 13.1827Z" fill="#0278D5"/>
<g opacity="0.8">
<path opacity="0.8" d="M65.3159 78.1889H3.7041V38.7015C3.7041 38.4682 3.74988 38.2372 3.83881 38.0216C3.92775 37.8061 4.05811 37.6102 4.22245 37.4452C4.38678 37.2803 4.58188 37.1494 4.79659 37.0601C5.01131 36.9708 5.24144 36.9249 5.47385 36.9249H63.545C63.7774 36.9249 64.0076 36.9708 64.2223 37.0601C64.437 37.1494 64.6321 37.2803 64.7964 37.4452C64.9608 37.6102 65.0911 37.8061 65.1801 38.0216C65.269 38.2372 65.3148 38.4682 65.3148 38.7015L65.3159 78.1889Z" fill="url(#paint4_linear)"/>
</g>
<path d="M6.32346 37.6513H62.6977C63.1671 37.6513 63.6172 37.8385 63.9491 38.1716C64.281 38.5048 64.4675 38.9567 64.4675 39.4279V78.1889H4.55371V39.4279C4.55371 38.9567 4.74017 38.5048 5.07206 38.1716C5.40395 37.8385 5.85409 37.6513 6.32346 37.6513Z" fill="white"/>
<path d="M62.5376 40.0092H6.48145V76.9183H62.5376V40.0092Z" fill="#F5F5F5"/>
<path opacity="0.8" d="M62.5159 41.8015H6.69727V75.008H62.5159V41.8015Z" fill="#E0E0E0"/>
<path d="M62.5159 40.0373H6.69727V41.8015H62.5159V40.0373Z" fill="#F5F5F5"/>
<path d="M7.89341 41.3191C8.12848 41.3191 8.31904 41.1278 8.31904 40.8919C8.31904 40.6559 8.12848 40.4646 7.89341 40.4646C7.65834 40.4646 7.46777 40.6559 7.46777 40.8919C7.46777 41.1278 7.65834 41.3191 7.89341 41.3191Z" fill="#FF5252"/>
<path d="M9.06528 41.3191C9.30036 41.3191 9.49092 41.1278 9.49092 40.8919C9.49092 40.6559 9.30036 40.4646 9.06528 40.4646C8.83021 40.4646 8.63965 40.6559 8.63965 40.8919C8.63965 41.1278 8.83021 41.3191 9.06528 41.3191Z" fill="#FFFF00"/>
<path d="M10.2381 41.3191C10.4732 41.3191 10.6638 41.1278 10.6638 40.8919C10.6638 40.6559 10.4732 40.4646 10.2381 40.4646C10.0031 40.4646 9.8125 40.6559 9.8125 40.8919C9.8125 41.1278 10.0031 41.3191 10.2381 41.3191Z" fill="#69F0AE"/>
<g opacity="0.8">
<path opacity="0.8" d="M67.0398 80.8414C63.6101 81.1023 4.71116 80.9977 2.65243 80.8414C-0.0458749 79.536 4.9767e-05 74.4716 4.9767e-05 74.4716L27.0111 74.2906L27.1018 75.8321H38.6656L39.1137 74.4716H69.0515C69.0515 74.4716 69.6463 79.1188 67.0398 80.8414Z" fill="url(#paint5_linear)"/>
</g>
<path d="M68.6121 74.8798H39.2589C39.3744 75.0103 39.4495 75.1718 39.4751 75.3445C39.5007 75.5171 39.4757 75.6936 39.4032 75.8522C39.3306 76.0109 39.2137 76.1449 39.0665 76.238C38.9194 76.3311 38.7485 76.3792 38.5746 76.3764H27.3736C27.1998 76.3792 27.0288 76.3311 26.8817 76.238C26.7345 76.1449 26.6176 76.0109 26.545 75.8522C26.4725 75.6936 26.4475 75.5171 26.4731 75.3445C26.4987 75.1718 26.5738 75.0103 26.6893 74.8798H0.406297C0.406297 74.8798 0.361494 79.2785 3.02619 80.4119C5.05916 80.548 63.2379 80.6368 66.625 80.4119C69.2001 78.9153 68.6121 74.8798 68.6121 74.8798Z" fill="#F5F5F5"/>
<path d="M6.50437 76.1942C6.70418 76.1942 6.86616 76.0316 6.86616 75.831C6.86616 75.6305 6.70418 75.4678 6.50437 75.4678C6.30456 75.4678 6.14258 75.6305 6.14258 75.831C6.14258 76.0316 6.30456 76.1942 6.50437 76.1942Z" fill="#E0E0E0"/>
<path d="M7.58835 76.1942C7.78816 76.1942 7.95014 76.0316 7.95014 75.831C7.95014 75.6305 7.78816 75.4678 7.58835 75.4678C7.38854 75.4678 7.22656 75.6305 7.22656 75.831C7.22656 76.0316 7.38854 76.1942 7.58835 76.1942Z" fill="#E0E0E0"/>
<path d="M8.67331 76.1942C8.87313 76.1942 9.0351 76.0316 9.0351 75.831C9.0351 75.6305 8.87313 75.4678 8.67331 75.4678C8.4735 75.4678 8.31152 75.6305 8.31152 75.831C8.31152 76.0316 8.4735 76.1942 8.67331 76.1942Z" fill="#E0E0E0"/>
<g opacity="0.7">
<path opacity="0.7" d="M32.7681 43.107L21.8965 49.8231C21.8965 49.8231 21.8965 63.676 32.7681 71.231C43.6397 63.6749 43.6397 49.8231 43.6397 49.8231L32.7681 43.107Z" fill="url(#paint6_linear)"/>
</g>
<path d="M32.7681 43.8997L22.5137 50.2381C22.5137 50.2381 22.5137 63.3106 32.7737 70.4405C43.0338 63.3106 43.0338 50.2381 43.0338 50.2381L32.7681 43.8997Z" fill="#0278D5"/>
<path opacity="0.05" d="M32.9425 43.8997L32.7666 44.0121V70.3236L32.9425 70.4473C43.2025 63.3173 43.2025 50.2448 43.2025 50.2448L32.9425 43.8997Z" fill="black"/>
<path d="M32.7681 45.4312L23.6953 51.0375C23.6953 51.0375 23.6953 62.6011 32.7681 68.9091C41.8408 62.6011 41.8408 51.0375 41.8408 51.0375L32.7681 45.4312Z" fill="#0278D5"/>
<path opacity="0.08" d="M32.7686 45.475V68.9484C41.8413 62.6404 41.8413 51.0769 41.8413 51.0769L32.7686 45.475Z" fill="black"/>
<path d="M26.7705 34.45V11.1745H45.9241" stroke="#3AD29F" stroke-miterlimit="10" stroke-dasharray="4 4"/>
<path d="M20.834 27.3662V4.09064H39.9876" stroke="#3AD29F" stroke-miterlimit="10" stroke-dasharray="4 4"/>
<path d="M80.199 53.6777V71.8933H70.1182" stroke="#3AD29F" stroke-miterlimit="10" stroke-dasharray="4 4"/>
<path d="M86.2468 57.7256V75.9412H76.166" stroke="#3AD29F" stroke-miterlimit="10" stroke-dasharray="4 4"/>
</g>
<defs>
<linearGradient id="paint0_linear" x1="73.9818" y1="51.5795" x2="73.9818" y2="0" gradientUnits="userSpaceOnUse">
<stop stop-color="#808080" stop-opacity="0.25"/>
<stop offset="0.54" stop-color="#808080" stop-opacity="0.12"/>
<stop offset="1" stop-color="#808080" stop-opacity="0.1"/>
</linearGradient>
<linearGradient id="paint1_linear" x1="7291.18" y1="1086.83" x2="7291.18" y2="365.035" gradientUnits="userSpaceOnUse">
<stop stop-color="#808080" stop-opacity="0.25"/>
<stop offset="0.54" stop-color="#808080" stop-opacity="0.12"/>
<stop offset="1" stop-color="#808080" stop-opacity="0.1"/>
</linearGradient>
<linearGradient id="paint2_linear" x1="7291.18" y1="2445.9" x2="7291.18" y2="1724.11" gradientUnits="userSpaceOnUse">
<stop stop-color="#808080" stop-opacity="0.25"/>
<stop offset="0.54" stop-color="#808080" stop-opacity="0.12"/>
<stop offset="1" stop-color="#808080" stop-opacity="0.1"/>
</linearGradient>
<linearGradient id="paint3_linear" x1="7291.18" y1="3795.86" x2="7291.18" y2="3074.07" gradientUnits="userSpaceOnUse">
<stop stop-color="#808080" stop-opacity="0.25"/>
<stop offset="0.54" stop-color="#808080" stop-opacity="0.12"/>
<stop offset="1" stop-color="#808080" stop-opacity="0.1"/>
</linearGradient>
<linearGradient id="paint4_linear" x1="29275.5" y1="32436.6" x2="29275.5" y2="17294" gradientUnits="userSpaceOnUse">
<stop stop-color="#808080" stop-opacity="0.25"/>
<stop offset="0.54" stop-color="#808080" stop-opacity="0.12"/>
<stop offset="1" stop-color="#808080" stop-opacity="0.1"/>
</linearGradient>
<linearGradient id="paint5_linear" x1="32861.8" y1="5510.41" x2="32861.8" y2="5109.91" gradientUnits="userSpaceOnUse">
<stop stop-color="#808080" stop-opacity="0.25"/>
<stop offset="0.54" stop-color="#808080" stop-opacity="0.12"/>
<stop offset="1" stop-color="#808080" stop-opacity="0.1"/>
</linearGradient>
<linearGradient id="paint6_linear" x1="10014" y1="20385.5" x2="10014" y2="13350.8" gradientUnits="userSpaceOnUse">
<stop stop-color="#808080" stop-opacity="0.25"/>
<stop offset="0.54" stop-color="#808080" stop-opacity="0.12"/>
<stop offset="1" stop-color="#808080" stop-opacity="0.1"/>
</linearGradient>
<clipPath id="clip0">
<rect width="97" height="81" fill="white"/>
</clipPath>
</defs>
</svg>
